src/apps/symbolic/org.gnome.Tali-symbolic.svg

<svg width="16px" height="16px" version="1.1" viewBox="0 0 16 16" xmlns="http://www.w3.org/2000/svg">
 <path d="m2.918 1c-1.0625 0-1.918 0.85547-1.918 1.9219v10.156c0 1.0664 0.85547 1.9219 1.918 1.9219h10.164c1.0625 0 1.918-0.85547 1.918-1.9219v-10.156c0-1.0664-0.85547-1.9219-1.918-1.9219zm-0.003907 1h10.172c0.50781 0 0.91406 0.40625 0.91406 0.91016v9.1797c0 0.50391-0.40625 0.91016-0.91406 0.91016h-10.172c-0.50781 0-0.91406-0.40625-0.91406-0.91016v-9.1797c0-0.50391 0.40625-0.91016 0.91406-0.91016z" fill="#363636"/>
 <path d="m5 4c0 0.55078-0.44922 1-1 1s-1-0.44922-1-1 0.44922-1 1-1 1 0.44922 1 1z" fill="#363636"/>
 <path d="m13 4c0 0.55078-0.44922 1-1 1s-1-0.44922-1-1 0.44922-1 1-1 1 0.44922 1 1z" fill="#363636"/>
 <path d="m13 11c0 0.55078-0.44922 1-1 1s-1-0.44922-1-1 0.44922-1 1-1 1 0.44922 1 1z" fill="#363636"/>
 <path d="m5 11c0 0.55078-0.44922 1-1 1s-1-0.44922-1-1 0.44922-1 1-1 1 0.44922 1 1z" fill="#363636"/>
 <path d="m9 7.707c0 0.55469-0.44922 1-1 1s-1-0.44531-1-1c0-0.55078 0.44922-1 1-1s1 0.44922 1 1z" fill="#363636"/>
</svg>

<svg xmlns="http://www.w3.org/2000/svg" width="16" height="16">
    <path fill="#050505" fill-opacity=".7" d="M2.918 1A1.915 1.915 0 0 0 1 2.922v10.156C1 14.144 1.855 15 2.918 15h10.164A1.915 1.915 0 0 0 15 13.078V2.922A1.915 1.915 0 0 0 13.082 1zm-.004 1h10.172a.91.91 0 0 1 .914.91v9.18a.91.91 0 0 1-.914.91H2.914A.91.91 0 0 1 2 12.09V2.91A.91.91 0 0 1 2.914 2z"/>
    <path fill="#050505" fill-opacity=".7" d="M5 4c0 .55-.45 1-1 1s-1-.45-1-1 .45-1 1-1 1 .45 1 1zM13 4c0 .55-.45 1-1 1s-1-.45-1-1 .45-1 1-1 1 .45 1 1zM13 11c0 .55-.45 1-1 1s-1-.45-1-1 .45-1 1-1 1 .45 1 1zM5 11c0 .55-.45 1-1 1s-1-.45-1-1 .45-1 1-1 1 .45 1 1zM9 7.707a1 1 0 1 1-1.999.001A1 1 0 0 1 9 7.707z"/>
</svg>
